X:219
T:c:\_my documents\_tabledit\pete martin fanile\sxdgs&bm.mid
C:
N:TablEdited by Kim Davis
L:1/8
Q:1/4=236
M:4/4
K:G
z8 |: "Em"E8 | "Am"AA z2 "B7"BB z2 | "Em"E8 |1 A"Am"A z2 "B7"BB z2 :|2 z2 B,2 "B7"D2 ^D2 | 
"Em"ED EG FE DC |: "B7"B,D ^DB ^A=A GF | "Em"ED EG FE FG | "E7"^G=G ^GA Bd cB | 
"Am"AG EG AB cA | "B7"Bc ^dg fe df | "C"ed ce "G"dc Bd | "Am"cB Ac "B7"BA GF | 
"Em"ED EG "B7"FE DF :| "Em"E2 EE E2 EG | "Am"A8 | z4 cB AG | "Em"EG B6 | z4 cB AG | 
"Am"A8 | AB ce cB Ac | "Em"BG E6 | z6 EG | "Am"A8 | z4 cB AG | "Em"EG B6 | z4 cB AG | 
"Am"A6 AB | "C"ed ef gf eg | "B7"fe ^df ed ce | ^dc Bd cB AG |: "Em"ED EG FE DC | 
"B7"^D=D ^DB ^A=A GF | "Em"ED EG FE FG | "E7"EG ^GA Bd cB | "Am"AG EG AB cA | 
"B7"Bc ^dg fe df | "C"ed ce "G"Bc Bd | "Am"AB Ac "B7"BA GF :| "Em"ED EG "B7"FE DF | 
"Em"E8 | E8 | "Am"AA z2 "B7"BB z2 | "Em"E8 | "Am"AA z2 "B7"BB z2 | "C"c6 G2 | 
z8 | "C"A6 B2 | z8 | ed ce dc Bd | [ec][Bd] [Ac][ec] [Bd][Ac] [BG][Bd] | [eAc][BGd] [AFc][eAc] [BGd][AFc] [BEG][BGd] | 
[AFc][BEG] [ADF][AFc] [BEG][ADF] [EC][BEG] | [ADF][EC] [DB,][ADF] [EC][DB,] [EA,][EC] | 
[DB,][EA,] [DG,][DB,] [EA,][DG,] [FA,][DG,] | [E8G,8] | 
 

